svgs/sharp-regular/box-archive.svg

<svg xmlns="http://www.w3.org/2000/svg" viewBox="0 0 512 512"><!--! Font Awesome Pro 6.6.0 by @fontawesome - https://fontawesome.com License - https://fontawesome.com/license (Commercial License) Copyright 2024 Fonticons, Inc. --><path d="M464 80L48 80l0 48 32 0 352 0 32 0 0-48zm16 96l-16 0-32 0L80 176l-32 0-16 0L0 176l0-48L0 80 0 32l48 0 416 0 48 0 0 48 0 48 0 48-32 0zM160 224l24 0 144 0 24 0 0 48-24 0-144 0-24 0 0-48zm272-16l48 0 0 224 0 48-48 0L80 480l-48 0 0-48 0-224 48 0 0 224 352 0 0-224z"/></svg>

<svg xmlns="http://www.w3.org/2000/svg" viewBox="0 0 512 512"><!--! Font Awesome Pro 6.4.0 by @fontawesome - https://fontawesome.com License - https://fontawesome.com/license (Commercial License) Copyright 2023 Fonticons, Inc. --><path d="M464 80H48v48H80 432h32V80zm16 96H464 432 80 48 32 0V128 80 32H48 464h48V80v48 48H480zM160 224h24H328h24v48H328 184 160V224zm272-16h48V432v48H432 80 32V432 208H80V432H432V208z"/></svg>
